X: 4158
M: C|
L: 1/8
K: D
|:\
d2(fd) edcB | ABcd efge |\
[1 d2(fd) edcA | BGFG E2D2 :|\
[2 fdec dBAF | DGFG E2D2 |]


